X:306
T:Lili Marlene
Z:Jack Campin, http://www.campin.me.uk/
F:Jack Campin's Nine-Note Tunebook
% last edit 03-02-2013
M:4/4
L:1/8
Q:1/4=96
K:C
z|E>E E>F G2 E2 |F>F F>c B3 \
z|D>D D>E F2 F>G|
                 B>A G>F E3 \
z|A2  B>c B2 A2 |A2  G2  B3 \
A|G2  F2  A3   G|
                 F2  E2  G3 \
E|G3  F   F2 d2 |c4      G3 \
E|G3  F   F2 D2 |C4      z3|]

